svgs/regular/police-box.svg

<svg xmlns="http://www.w3.org/2000/svg" viewBox="0 0 384 512"><!--! Font Awesome Pro 6.6.0 by @fontawesome - https://fontawesome.com License - https://fontawesome.com/license (Commercial License) Copyright 2024 Fonticons, Inc. --><path d="M192 0c8.8 0 16 7.2 16 16l0 16 80 0c17.7 0 32 14.3 32 32c17.7 0 32 14.3 32 32l0 368 8 0c13.3 0 24 10.7 24 24s-10.7 24-24 24l-40 0L64 512l-40 0c-13.3 0-24-10.7-24-24s10.7-24 24-24l8 0L32 96c0-17.7 14.3-32 32-32c0-17.7 14.3-32 32-32l80 0 0-16c0-8.8 7.2-16 16-16zM80 464l224 0 0-352L80 112l0 352zm24-320c0-4.4 3.6-8 8-8l24 0 0 32-32 0 0-24zm0 40l32 0 0 32-24 0c-4.4 0-8-3.6-8-8l0-24zm72-48c4.4 0 8 3.6 8 8l0 24-32 0 0-32 24 0zm-24 48l32 0 0 24c0 4.4-3.6 8-8 8l-24 0 0-32zm56-48l24 0 0 32-32 0 0-24c0-4.4 3.6-8 8-8zm24 48l0 32-24 0c-4.4 0-8-3.6-8-8l0-24 32 0zm16-48l24 0c4.4 0 8 3.6 8 8l0 24-32 0 0-32zm32 48l0 24c0 4.4-3.6 8-8 8l-24 0 0-32 32 0zM104 248c0-8.8 7.2-16 16-16l48 0c8.8 0 16 7.2 16 16l0 48c0 8.8-7.2 16-16 16l-48 0c-8.8 0-16-7.2-16-16l0-48z"/></svg>

<svg xmlns="http://www.w3.org/2000/svg" viewBox="0 0 384 512"><!--! Font Awesome Pro 6.4.0 by @fontawesome - https://fontawesome.com License - https://fontawesome.com/license (Commercial License) Copyright 2023 Fonticons, Inc. --><path d="M192 0c8.8 0 16 7.2 16 16V32h80c17.7 0 32 14.3 32 32c17.7 0 32 14.3 32 32V464h8c13.3 0 24 10.7 24 24s-10.7 24-24 24H320 64 24c-13.3 0-24-10.7-24-24s10.7-24 24-24h8V96c0-17.7 14.3-32 32-32c0-17.7 14.3-32 32-32h80V16c0-8.8 7.2-16 16-16zM80 464H304V112H80V464zm24-320c0-4.4 3.6-8 8-8h24v32H104V144zm0 40h32v32H112c-4.4 0-8-3.6-8-8V184zm72-48c4.4 0 8 3.6 8 8v24H152V136h24zm-24 48h32v24c0 4.4-3.6 8-8 8H152V184zm56-48h24v32H200V144c0-4.4 3.6-8 8-8zm24 48v32H208c-4.4 0-8-3.6-8-8V184h32zm16-48h24c4.4 0 8 3.6 8 8v24H248V136zm32 48v24c0 4.4-3.6 8-8 8H248V184h32zM104 248c0-8.8 7.2-16 16-16h48c8.8 0 16 7.2 16 16v48c0 8.8-7.2 16-16 16H120c-8.8 0-16-7.2-16-16V248z"/></svg>
